public/images/logo.svg

<svg height="53" viewBox="0 0 53 53" width="53" xmlns="http://www.w3.org/2000/svg"><g fill="#1f335e"><g fill-opacity=".301437"><path d="m26.5000066 9.73469388c-.4308277.00153081-.8445104-.15005201-1.149154-.42108803-.3046436-.27103601-.4750222-.63908214-.4733016-1.02238185v-6.84776578c0-.79719996.7264053-1.44345822 1.6224556-1.44345822.8960502 0 1.6224424.64625826 1.6224424 1.44345822v6.84776578c0 .38282892-.1709354.74997817-.4752024 1.0206791-.304267.27070092-.7169416.42279078-1.14724.42279078z"/><path d="m26.5000066 53c-.4308277.0015308-.8445104-.150052-1.149154-.421088s-.4750222-.6390822-.4733016-1.0223819v-6.8477658c0-.7971999.7264053-1.4434582 1.6224556-1.4434582.8960502 0 1.6224424.6462583 1.6224424 1.4434582v6.8477658c0 .3828289-.1709354.7499782-.4752024 1.0206791s-.7169416.4227908-1.14724.4227908z"/><path d="m34.276766 11.7075322c-.342457-.1878798-.5925949-.4983991-.6951581-.8629638s-.0491115-.7531736.1485477-1.07998266l3.5232603-5.81747713c.4129371-.6735173 1.316985-.90206205 2.0240838-.51169162.7070988.39037044.9521061 1.25327797.5485498 1.93197412l-3.5232603 5.81747709c-.1953391.3270684-.5190221.566145-.899325.6642538s-.7858215.0471481-1.1266982-.1415898z"/><path d="m18.6804407 11.7047751c-.3437794.1914705-.7527513.2431691-1.1362926.1436398-.3835414-.0995292-.7099806-.3420674-.9069831-.6738713l-3.5352864-5.91899674c-.3010602-.67271382-.0295454-1.45563294.6311009-1.81979421.6606462-.36416126 1.5002093-.19369016 1.9514558.39623803l3.5952065 5.9017066c.1955169.33716042.2421843.73568592.1295399 1.10623092-.1126445.3705449-.3751772.6821106-.728741.8648469z"/><path d="m39.2820393 49.5614733c-.3402227.1903318-.7460909.2429834-1.1272318.1462313s-.7059107-.3348752-.9019943-.6613475l-3.5185119-5.813455c-.2692053-.43809-.2717254-.9802061-.0066037-1.4205568.2651218-.4403508.7572343-.7114174 1.289528-.7103045.5322938.0011198 1.0231523.2742481 1.2862421.7157067l3.5185118 5.813455c.4080799.6754688.1666459 1.5385882-.5399402 1.9302708z"/><path d="m11.7055333 18.7225503c-.1878355.3427707-.4982815.5931379-.86276.6957951s-.7529957.0491564-1.07972756-.1486838l-5.816103-3.520542c-.67335821-.4133154-.90184898-1.3181918-.51157075-2.0259385.39027823-.7077468 1.25298194-.9529786 1.93151777-.5490525l5.83314234 3.5264888c.6715528.4132213.8975567 1.317205.5055012 2.0219329z"/><path d="m49.5614733 39.2820393c-.3916826.7065861-1.254802.9480201-1.9302708.5399402l-5.813455-3.5185118c-.4414586-.2630898-.7145869-.7539483-.7157067-1.2862421-.0011129-.5322937.2699537-1.0244062.7103045-1.289528.4403507-.2651217.9824668-.2626016 1.4205568.0066037l5.813455 3.5185119c.3264723.1960836.5645954.5208534.6613475.9019943s.0441005.7870091-.1462313 1.1272318z"/><path d="m9.73469388 26.5000066c0 .8960502-.64626992 1.6224424-1.44346988 1.6224424h-6.84776578c-.79719996 0-1.44345822-.7263922-1.44345822-1.6224424 0-.8960503.64625826-1.6224556 1.44345822-1.6224556h6.84776578c.38329971-.0017206.75134584.168658 1.02238185.4733016.27103602.3046436.42261884.7183263.42108803 1.149154z"/><path d="m53 26.5000066c0 .8960502-.6462699 1.6224424-1.4434699 1.6224424h-6.8477658c-.7971999 0-1.4434582-.7263922-1.4434582-1.6224424 0-.8960503.6462583-1.6224556 1.4434582-1.6224556h6.8477658c.3832997-.0017206.7513459.168658 1.0223819.4733016s.4226188.7183263.421088 1.149154z"/><path d="m11.7057772 34.276189c.1904773.3440333.2419077.7533072.1428947 1.1371319-.0990129.3838246-.3402929.710505-.6703755.907653l-5.88829168 3.555887c-.67698276.3340284-1.48573255.0670006-1.85662639-.6130089-.37089384-.6800094-.17903086-1.544003.44045498-1.9834482l5.88829166-3.555887c.68307473-.4033053 1.54923913-.1574594 1.94365223.5516722z"/><path d="m49.5660737 13.6950527c.3890252.7054093.1583557 1.6072379-.5153963 2.0150006l-5.8166165 3.5558835c-.4383282.2688906-.9807391.2714077-1.4213294.006596-.4405902-.2648118-.7118042-.756349-.7106907-1.2880204.0011205-.5316714.2743973-1.021956.7160959-1.2847381l5.8166165-3.5143982c.6684621-.412714 1.5298531-.1853925 1.9313205.5096766z"/></g><path d="m16.6418084 48.5806772-4.3489382-2.4053902c-.1822122-.1012245-.3148486-.2676958-.3686335-.46267s-.0242962-.4024209.0819573-.576552l3.1229402-4.7348822c.2227373-.3633554.7090244-.4881729 1.0918092-.2802397l3.9585707 2.2127255c.3553908.2175129.4751372.660707.2744772 1.0158687l-2.7447717 4.9509003c-.2196614.3523603-.6906768.4760214-1.0674112.2802396z"/><path d="m35.5887822 21.7410996c.1401271-.2215185.1401271-.502647 0-.7241655-.4645817-.7594905-1.6855975-1.7073818-3.8834259-2.9437618-2.1978285-1.23638-3.680916-1.842795-4.5683861-1.8486825-.25202.0018476-.4818777.1427168-.5956174.3650265l-8.0884853 20.1058937c-.1443942.2928392-.041527.6461824.2382469.8183658l2.3824699 1.3541304c.2917496.1456535.6472932.0609077.8398207-.2001758z"/></g></svg>

<?xml version="1.0" encoding="UTF-8"?>
<svg width="53px" height="53px" viewBox="0 0 53 53" version="1.1" xmlns="http://www.w3.org/2000/svg" xmlns:xlink="http://www.w3.org/1999/xlink">
    <title>logo</title>
    <g id="logo" stroke="none" stroke-width="1" fill="none" fill-rule="evenodd">
        <g id="TFCA-logomark-pos-sRGB" transform="translate(0.000000, -0.000000)" fill="#1F335E" fill-rule="nonzero">
            <path d="M26.5000066,9.73469388 C26.0691789,9.73622469 25.6554962,9.58464187 25.3508526,9.31360585 C25.046209,9.04256984 24.8758304,8.67452371 24.877551,8.291224 L24.877551,1.44345822 C24.877551,0.646258257 25.6039563,0 26.5000066,0 C27.3960568,0 28.122449,0.646258257 28.122449,1.44345822 L28.122449,8.291224 C28.122449,8.67405292 27.9515136,9.04120217 27.6472466,9.3119031 C27.3429796,9.58260402 26.930305,9.73469388 26.5000066,9.73469388 Z" id="Path" fill-opacity="0.301436844"></path>
            <path d="M26.5000066,53 C26.0691789,53.0015308 25.6554962,52.849948 25.3508526,52.578912 C25.046209,52.307876 24.8758304,51.9398298 24.877551,51.5565301 L24.877551,44.7087643 C24.877551,43.9115644 25.6039563,43.2653061 26.5000066,43.2653061 C27.3960568,43.2653061 28.122449,43.9115644 28.122449,44.7087643 L28.122449,51.5565301 C28.122449,51.939359 27.9515136,52.3065083 27.6472466,52.5772092 C27.3429796,52.8479101 26.930305,53 26.5000066,53 Z" id="Path" fill-opacity="0.301436844"></path>
            <path d="M34.276766,11.7075322 C33.934309,11.5196524 33.6841711,11.2091331 33.5816079,10.8445684 C33.4790447,10.4800037 33.5324964,10.0913948 33.7301556,9.76458574 L37.2534159,3.94710861 C37.666353,3.27359131 38.5704009,3.04504656 39.2774997,3.43541699 C39.9845985,3.82578743 40.2296058,4.68869496 39.8260495,5.36739111 L36.3027892,11.1848682 C36.1074501,11.5119366 35.7837671,11.7510132 35.4034642,11.849122 C35.0231613,11.9472308 34.6176427,11.8962701 34.276766,11.7075322 L34.276766,11.7075322 Z" id="Path" fill-opacity="0.301436844"></path>
            <path d="M18.6804407,11.7047751 C18.3366613,11.8962456 17.9276894,11.9479442 17.5441481,11.8484149 C17.1606067,11.7488857 16.8341675,11.5063475 16.637165,11.1745436 L13.1018786,5.25554686 C12.8008184,4.58283304 13.0723332,3.79991392 13.7329795,3.43575265 C14.3936257,3.07159139 15.2331888,3.24206249 15.6844353,3.83199068 L19.2796418,9.73369728 C19.4751587,10.0708577 19.5218261,10.4693832 19.4091817,10.8399282 C19.2965372,11.2104731 19.0340045,11.5220388 18.6804407,11.7047751 L18.6804407,11.7047751 Z" id="Path" fill-opacity="0.301436844"></path>
            <path d="M39.2820393,49.5614733 C38.9418166,49.7518051 38.5359484,49.8044567 38.1548075,49.7077046 C37.7736666,49.6109525 37.4488968,49.3728294 37.2528132,49.0463571 L33.7343013,43.2329021 C33.465096,42.7948121 33.4625759,42.252696 33.7276976,41.8123453 C33.9928194,41.3719945 34.4849319,41.1009279 35.0172256,41.1020408 C35.5495194,41.1031606 36.0403779,41.3762889 36.3034677,41.8177475 L39.8219795,47.6312025 C40.2300594,48.3066713 39.9886254,49.1697907 39.2820393,49.5614733 L39.2820393,49.5614733 Z" id="Path" fill-opacity="0.301436844"></path>
            <path d="M11.7055333,18.7225503 C11.5176978,19.065321 11.2072518,19.3156882 10.8427733,19.4183454 C10.4782948,19.5210026 10.0897776,19.4675018 9.76304574,19.2696616 L3.94694274,15.7491196 C3.27358453,15.3358042 3.04509376,14.4309278 3.43537199,13.7231811 C3.82565022,13.0154343 4.68835393,12.7702025 5.36688976,13.1741286 L11.2000321,16.7006174 C11.8715849,17.1138387 12.0975888,18.0178224 11.7055333,18.7225503 L11.7055333,18.7225503 Z" id="Path" fill-opacity="0.301436844"></path>
            <path d="M49.5614733,39.2820393 C49.1697907,39.9886254 48.3066713,40.2300594 47.6312025,39.8219795 L41.8177475,36.3034677 C41.3762889,36.0403779 41.1031606,35.5495194 41.1020408,35.0172256 C41.1009279,34.4849319 41.3719945,33.9928194 41.8123453,33.7276976 C42.252696,33.4625759 42.7948121,33.465096 43.2329021,33.7343013 L49.0463571,37.2528132 C49.3728294,37.4488968 49.6109525,37.7736666 49.7077046,38.1548075 C49.8044567,38.5359484 49.7518051,38.9418166 49.5614733,39.2820393 Z" id="Path" fill-opacity="0.301436844"></path>
            <path d="M9.73469388,26.5000066 C9.73469388,27.3960568 9.08842396,28.122449 8.291224,28.122449 L1.44345822,28.122449 C0.646258257,28.122449 0,27.3960568 0,26.5000066 C0,25.6039563 0.646258257,24.877551 1.44345822,24.877551 L8.291224,24.877551 C8.67452371,24.8758304 9.04256984,25.046209 9.31360585,25.3508526 C9.58464187,25.6554962 9.73622469,26.0691789 9.73469388,26.5000066 L9.73469388,26.5000066 Z" id="Path" fill-opacity="0.301436844"></path>
            <path d="M53,26.5000066 C53,27.3960568 52.3537301,28.122449 51.5565301,28.122449 L44.7087643,28.122449 C43.9115644,28.122449 43.2653061,27.3960568 43.2653061,26.5000066 C43.2653061,25.6039563 43.9115644,24.877551 44.7087643,24.877551 L51.5565301,24.877551 C51.9398298,24.8758304 52.307876,25.046209 52.578912,25.3508526 C52.849948,25.6554962 53.0015308,26.0691789 53,26.5000066 L53,26.5000066 Z" id="Path" fill-opacity="0.301436844"></path>
            <path d="M11.7057772,34.276189 C11.8962545,34.6202223 11.9476849,35.0294962 11.8486719,35.4133209 C11.749659,35.7971455 11.508379,36.1238259 11.1782964,36.3209739 L5.29000472,39.8768609 C4.61302196,40.2108893 3.80427217,39.9438615 3.43337833,39.263852 C3.06248449,38.5838426 3.25434747,37.719849 3.87383331,37.2804038 L9.76212497,33.7245168 C10.4451997,33.3212115 11.3113641,33.5670574 11.7057772,34.276189 L11.7057772,34.276189 Z" id="Path" fill-opacity="0.301436844"></path>
            <path d="M49.5660737,13.6950527 C49.9550989,14.400462 49.7244294,15.3022906 49.0506774,15.7100533 L43.2340609,19.2659368 C42.7957327,19.5348274 42.2533218,19.5373445 41.8127315,19.2725328 C41.3721413,19.007721 41.1009273,18.5161838 41.1020408,17.9845124 C41.1031613,17.452841 41.3764381,16.9625564 41.8181367,16.6997743 L47.6347532,13.1853761 C48.3032153,12.7726621 49.1646063,12.9999836 49.5660737,13.6950527 L49.5660737,13.6950527 Z" id="Path" fill-opacity="0.301436844"></path>
            <path d="M16.6418084,48.5806772 L12.2928702,46.175287 C12.110658,46.0740625 11.9780216,45.9075912 11.9242367,45.712617 C11.8704518,45.5176428 11.8999405,45.3101961 12.006194,45.136065 L15.1291342,40.4011828 C15.3518715,40.0378274 15.8381586,39.9130099 16.2209434,40.1209431 L20.1795141,42.3336686 C20.5349049,42.5511815 20.6546513,42.9943756 20.4539913,43.3495373 L17.7092196,48.3004376 C17.4895582,48.6527979 17.0185428,48.776459 16.6418084,48.5806772 L16.6418084,48.5806772 Z" id="Path"></path>
            <path d="M35.5887822,21.7410996 C35.7289093,21.5195811 35.7289093,21.2384526 35.5887822,21.0169341 C35.1242005,20.2574436 33.9031847,19.3095523 31.7053563,18.0731723 C29.5075278,16.8367923 28.0244403,16.2303773 27.1369702,16.2244898 C26.8849502,16.2263374 26.6550925,16.3672066 26.5413528,16.5895163 L18.4528675,36.69541 C18.3084733,36.9882492 18.4113405,37.3415924 18.6911144,37.5137758 L21.0735843,38.8679062 C21.3653339,39.0135597 21.7208775,38.9288139 21.913405,38.6677304 L35.5887822,21.7410996 Z" id="Path"></path>
        </g>
    </g>
</svg>
